X:1
T:Fields and Daisies
T:Machairidhe's Nóinínidhe
M:C
L:1/8
R:Reel
N:"Moderately"
S:Joyce - Old Irish Folk Music and Songs  (1909)
Z:AK/Fiddler's Companion
K:D
D/F/|A2 BA GF ED|FA d>d d3c|GdcB AG FE|D>EFG A2 FA|
B2 AF D>EFA|d>edc B2 dB|A>BAF dBAF|E4D2||
DF|A2 dB AFEF|D2d2 d2 cB|ABAF ABde|f2e2 e2 d>e|
fedf edBe|dedB A2 d>B|A>BAF dBAF|E4D2||

